X:1
T:Longwater
C:XiM
D:"989", XiM
R:Schottische
M:4/4
L:1/4
K:Dm
"Dm"F>E D/E/D/E/|F/E/F/G/ AG/A/|"Bb"B>A GF | "C"GF "Am"E2|
"Dm"F>E D/E/D/E/|F/E/F/G/ "(F)"AG/A/|"Bb"BA GF | "C"E4:|
"Bb"DF "C"EF/G/|"F"A>G A/G/F/E/|"Bb"D/E/F/A/ "C"GF/G/|"Dm"A/F/c/A/ "Am"G2|
"Bb"DF "C"EF/G/|"F"A>G A/G/F/E/|"Bb"D/E/F/A/ "C"GF/E/|"Dm"FF "Am"E2:|
